public/src/img/fadeblue.svg

<svg width="4503" height="197" viewBox="0 0 4503 197" fill="none" xmlns="http://www.w3.org/2000/svg">
<path opacity="0.25" d="M4503 197L4503 121.007C4323.67 84.5625 4114.28 68.1951 3910.11 75.0408C3646.08 83.8565 3398.53 129.725 3134.09 136.603C2857 143.761 2580.44 108.892 2315.29 78.718C2055.36 49.168 1796.32 37.8733 1529.52 57.2449C1393.87 67.0949 1267.41 86.5322 1137.57 105.411C789.939 155.958 326.467 220.459 -6.11341e-05 110.862L-6.86646e-05 197L4503 197Z" fill="#093067"/>
<path opacity="0.5" d="M4503 197L4503 171.045C4454.22 136.39 4399.28 103.655 4324.04 78.7181C4129.96 14.3321 3883.84 14.7753 3660.26 46.6564C3543.37 63.3193 3434.78 89.4545 3323.78 111.995C3170.22 143.186 3005.83 187.511 2832.84 193.536C2696.77 198.215 2566.79 178.071 2462.84 141.725C2343.62 100.043 2228.98 39.9419 2073.97 21.8836C1922.22 4.16999 1768.7 32.8663 1626.93 61.7431C1485.16 90.6199 1344.9 125.768 1188.19 132.417C964.055 142.02 763.108 94.8554 554.394 68.6544C441.069 54.4376 332.997 58.5253 227.589 80.9669C143.421 98.8446 47.4691 125.177 -6.55875e-05 161.802L-6.86646e-05 197L4503 197Z" fill="#093067"/>
<path d="M4503 197L4503 187.757C3940.39 100.142 3324.38 79.9165 2717.45 127.114C2556.09 139.657 2401.37 160.144 2238.59 170.553C2017.19 184.72 1816.51 150.459 1617.33 112.438C1396.19 70.2305 1178.28 40.6477 933.622 49.25C608.918 60.7416 286.466 124.29 -6.79197e-05 188.479L-6.86646e-05 197L4503 197Z" fill="#093067"/>
</svg>

<?xml version="1.0" encoding="UTF-8"?>
<svg id="Camada_1" xmlns="http://www.w3.org/2000/svg" version="1.1" viewBox="0 0 4503 197">
  <!-- Generator: Adobe Illustrator 29.6.1, SVG Export Plug-In . SVG Version: 2.1.1 Build 9)  -->
  <defs>
    <style>
      .st0 {
        opacity: .25;
      }

      .st0, .st1 {
        fill: #093067;
        isolation: isolate;
      }

      .st1 {
        opacity: .5;
      }

      .st2 {
        fill: #144391;
      }
    </style>
  </defs>
  <path class="st0" d="M4503,197v-75.99c-179.33-36.44-388.72-52.81-592.89-45.97-264.03,8.82-511.58,54.68-776.02,61.56-277.09,7.16-553.65-27.71-818.8-57.88-259.93-29.55-518.97-40.84-785.77-21.47-135.65,9.85-262.11,29.29-391.95,48.17C789.94,155.96,326.47,220.46,0,110.86v86.14s4503,0,4503,0Z"/>
  <path class="st1" d="M4503,197v-25.96c-48.78-34.65-103.72-67.39-178.96-92.33-194.08-64.39-440.2-63.94-663.78-32.06-116.89,16.66-225.48,42.8-336.48,65.34-153.56,31.19-317.95,75.52-490.94,81.54-136.07,4.68-266.05-15.46-370-51.81-119.22-41.68-233.86-101.78-388.87-119.84-151.75-17.71-305.27,10.98-447.04,39.86-141.77,28.88-282.03,64.02-438.74,70.67-224.13,9.6-425.08-37.56-633.8-63.76-113.32-14.22-221.4-10.13-326.8,12.31C143.42,98.84,47.47,125.18,0,161.8v35.2s4503,0,4503,0Z"/>
  <path class="st2" d="M4503,197v-9.24c-562.61-87.62-1178.62-107.84-1785.55-60.64-161.36,12.54-316.08,33.03-478.86,43.44-221.4,14.17-422.08-20.09-621.26-58.11-221.14-42.21-439.05-71.79-683.71-63.19C608.92,60.74,286.47,124.29,0,188.48v8.52s4503,0,4503,0Z"/>
</svg>
